!!!!SEGMENT: d-b--slg-bohn-ms-mus-111--019_jarzebski-adam--canzoni-e-concerti-19-spandesa.krn
!!!cenid: 16xx:1792
!!!COM: Jarzębski, Adam
!!!COM-rismID: pe30017782
!!!CDT:
!!!CNT:
!!!GTL: Canzoni e Concerti
!!!OTL: 19. Spandesa
!!!OMV: 019
!!!PDT: 1627
!!!AGN:
!!!SMS-siglum: D-B
!!!SMS-shelfmark: Slg Bohn Ms.mus. 111
!!!SMS-shelfwork: 002-019 G
!!!SMS-variant:
!!!SMS-altvar:
!!!NIFC-rismSourceID: 1001062014
!!!NIFC-rismChildID: 1001062014
!!!NIFC-islandoraID: none
!!!URL-pdf-islandora:
!!!URL-scan: https://digital.staatsbibliothek-berlin.de/werkansicht/?PPN=PPN1049147219 @EN{Scan on Staatsbibliothek zu Berlin Website} @PL{Skany w portalu Staatsbibliothek zu Berlin}
!!!IIIF:
!!!ONB-nifc: UWAGA: Prima vox: s. 32-33, Seconda vox: s. 92, Bassus sive Vox Tertia: s. 130, Basso continuo: s. 177. Uwaga: proszę wpisywać partie tylko występujące w danym koncercie i nazywać partie wg określeń podawanych przy danym utworze. Kody instr. dla humdrumowców podane zostaną na forum.
!!!AIN: 3 vox
!!!key: C
!!!filter-modern: sic -sq | shed -e "s/TX(.*):t=P:/tx$1:t=P:/LG" | shed -k -e "s/[<>]//g" | shed -e "s/yy//" | shed -e "s/^(\d+[\/\\]right)/$1yy/I;s/^(\d+[\/\\]left)/$1yy/I" | shed -k -e "s/#X/#/g" | shed -k -e "s/-X/-/g" | shed -k -e "s/n//g" | shed -k -e "s/LO:N:acc/LO:n:acc:/L" | shed -e "s/^custos:/Xcustos:/I" | shed -k -e "s/LO:N:vis/LO:n:vis:/L" | shed -e "s/:rj/:RJ/L" | shed -e "s/LO:DY:(a|b|rj)/LO:dy:$1/L" | shed -e "s/-//B" | modori -m | tie -s | autostem -r
**kern	**kern	**kern	**kern
*	*group1	*group1	*group1
*part4	*part3	*part2	*part1
*staff4	*staff3	*staff2	*staff1
*I"Baſso Continúo.	*I"Tertia Vox.	*I"Secúnda Vox.	*I"Canto.
*mI"Basso continuo	*mI"Voce III	*mI"Voce II	*mI"Soprano
*I'bc	*I'V 3	*I'V 2	*I'S
*	*ICvox	*ICvox	*ICvox
*	*Ivox	*Ivox	*Ivox
*IGcont	*	*	*
*clefF4	*clefC4	*clefG2	*clefG2
*mclefG2	*mclefGv2	*	*
*k[]	*k[]	*k[]	*k[]
*C:	*C:	*C:	*C:
*M2/2	*M2/2	*M2/2	*M2/2
*met(C|)	*met(C|)	*met(C|)	*met(C|)
*mmet(c|)	*mmet(c|)	*mmet(c|)	*mmet(c|)
=1-	=1-	=1-	=1-
!!LO:TX:t=P:problem:all\right or middle	!	!	!
!	!	!	!
*clefG2	*	*	*
!LO:TX:b:t=Spandeſa.:mod=	!LO:TX:b:t=Spandeſa.:mod=	!	!
4cc\	0r	1r	4cc\
8cc\L	.	.	8cc\L
8cc\J	.	.	8cc\J
2cc\	.	.	8ee\L
.	.	.	16cc\L
.	.	.	16dd\JJ
.	.	.	16ee\LL
.	.	.	16cc\
.	.	.	16ee\
!	!	!	!LO:TX:t=P:problem:kreska pseudotaktowa
.	.	.	16ff\JJ
=2-	=2-	=2-	=2-
4g/	.	4g/	8gg\L
.	.	.	16ff\L
.	.	.	16ee\JJ
8g/L	.	8g/L	8dd\L
8g/J	.	8g/J	8ee\J
8a/L	.	8a/L	4ff\
16f/L	.	16f/L	.
16g/JJ	.	16g/JJ	.
16a/LL	.	16a/LL	4ff\
16f/	.	16f/	.
16a/	.	16a/	.
!LO:TX:t=P:problem:kreska pseudotaktowa	!	!LO:TX:t=P:problem:kreska pseudotaktowa	!
16b/JJ	.	16b/JJ	.
=3-	=3-	=3-	=3-
8cc\L	1r	8cc\L	8ee\L
16b\L	.	16b\L	16gg\L
!	!	!	!LO:TX:a:t=P:problem:# above
16a\JJ	.	16a\JJ	16ff#X\JJ
8g/L	.	8g/L	8.gg\L
8g/J	.	8g/J	.
.	.	.	16aa\Jk
*	*	*	*custos:ff#
!	!	!	!LO:LB:g=original
8a/L	.	8a/L	8.ff#\L
8b/J	.	8b/J	.
.	.	.	16gg\J
*	*	*2\right	*
!LO:TX:t=P:problem:kreska pseudotaktowa	!	!	!
4cc\	.	2cc\	8.ee\L
!	!	!	!LO:TX:t=P:problem:kreska pseudotaktowa
.	.	.	16ff#\Jk
=4-	=4-	=4-	=4-
*	*	*	*2\right
2g/	2r	.	2dd\
.	.	8b/L	.
.	.	8a/J	.
!LO:MO:mod=*clefF4	!	!	!
*clefC4	*	*	*
4G/	4G/	2b/	2r
8G/L	8G/L	.	.
!LO:TX:t=P:problem:kreska pseudotaktowa	!	!	!
8G/J	8G/J	.	.
=5-	=5-	=5-	=5-
8A/L	8A/L	1r	4cc\
16F/L	16F/L	.	.
16G/JJ	16G/JJ	.	.
16A/LL	16A/LL	.	8cc\L
16F/	16F/	.	.
16A/	16A/	.	8cc\J
16B/JJ	16B/JJ	.	.
!	!LO:TX:t=P:problem:mixed beam	!	!
4c\	8c\L	.	8ee\L
.	8E/	.	16cc\L
.	.	.	16dd\JJ
4C/	8E/	.	16ee\LL
.	.	.	16cc\
!	!LO:TX:t=P:problem:kreska pseudotaktowa	!	!
.	8E/J	.	16ee\
!	!	!	!LO:TX:t=P:problem:kreska pseudotaktowa
.	.	.	16ffny\JJ
=6-	=6-	=6-	=6-
2C/	8E/L	8r	2gg\
.	16C/L	8g/L	.
.	16D/JJ	.	.
.	16E/LL	8g/	.
.	16C/	.	.
.	16E/	8g/J	.
.	16F/JJ	.	.
2G/	8.G/L	8b/L	2r
.	.	16g/L	.
.	16F/Jk	16a/JJ	.
!	!LO:TX:t=P:problem:kreska pseudotaktowa	!	!
.	4E/	16b/LL	.
.	.	16a/	.
.	.	16b/	.
.	.	16cc/JJ	.
*custos:D	*	*custos:dd	*
!LO:LB:g=original	!	!LO:LB:g=original	!
=7-	=7-	=7-	=7-
!	!	!LO:TX:t=P:problem:mixed beam	!
2D/	8D/L	8dd\L	8r
.	16D/L	16f/L	8d/L
.	16E/JJ	16g/JJ	.
*	*custos:F	*	*
!	!LO:LB:g=original	!	!
.	16F/LL	16a/LL	8d/
.	16D/	16f/	.
.	16F/	16a/	8d/J
.	16G/JJ	16b/JJ	.
4.A/	4.A/	16cc\LL	8a/L
.	.	16a\	.
.	.	16cc\	16a/L
.	.	16dd\JJ	16b/JJ
.	.	16ee\LL	16cc/LL
.	.	16cc\	16a/
16G/LL	16G/LL	16ee\	16cc/
!LO:TX:t=P:problem:kreska pseudotaktowa	!	!LO:TX:t=P:problem:kreska pseudotaktowa	!LO:TX:t=P:problem:kreska pseudotaktowa
16F/JJ	16F/JJ	16ff\JJ	16dd/JJ
=8-	=8-	=8-	=8-
!	!LO:TX:t=P:problem:mixed beam	!	!
2C/	8C/L	2gg\	16ee\LL
.	.	.	16cc\
.	8c\	.	16cc\
!	!	!	!LO:SIC:s=16ddJJ
.	.	.	16dd\
!	!	!	!LO:SIC:s=16eeLL
.	8c\	.	16ee\
.	.	.	16cc\
.	8A\J	.	16ee\
.	.	.	16ff\JJ
!	!	!	!LO:TX:t=P:problem:kreska pseudotaktowa
[2G/	1G/	16r	2gg\
.	.	16g/LL	.
.	.	16g/	.
.	.	16a/JJ	.
.	.	16b/LL	.
.	.	16g/	.
.	.	16b/	.
!	!	!LO:TX:t=P:problem:kreska pseudotaktowa	!
.	.	16cc/JJ	.
*	*	*	*custos:g
!	!	!	!LO:LB:g=original
=9-	=9-	=9-	=9-
2G/]	.	16dd\LL	16r
.	.	16b\	16g/LL
.	.	16b\	16g/
.	.	16cc\JJ	16a/JJ
.	.	16dd\LL	16b/LL
.	.	16b\	16g/
.	.	16dd\	16b/
.	.	16ee\JJ	16cc/JJ
2G/	2G/	4b/	4dd\
!	!	!LO:TX:t=P:problem:kreska pseudotaktowa	!
.	.	4ee\	4.gg\
=10-	=10-	=10-	=10-
4G/	4r	4b/	.
.	.	.	8ff\
4C/	4C/	2cc\	4ee\
2G/	2G/	.	2dd\
.	.	4b/	.
=11-	=11-	=11-	=11-
!LO:TX:t=P:problem:kreska pseudotaktowa	!	!	!
1C	1C	1cc	1cc
*	*	*custos:g	*
!	!	!LO:LB:g=original	!
=12-	=12-	=12-	=12-
*M3/2	*M3/2	*M3/2	*M3/2
*met(3)	*met(3)	*met(3)	*met(3)
2G/	1.r	2g/	2gg\
2A/	.	2a/	2ff\
2B\	.	2b/	2dd\
=13-	=13-	=13-	=13-
4c\	1.r	4cc\	4ee\
4d\	.	4dd\	4ff\
4c\	.	4cc\	4ee\
4B\	.	4b/	4dd\
!	!	!LO:TX:t=P:problem:kreska pseudotaktowa	!
2A/	.	2a/	2cc\
=14-	=14-	=14-	=14-
2G/	2G/	2b/	2g/
2A/	2A/	2cc\	2f/
2B\	2B\	2dd\	2d/
=15-	=15-	=15-	=15-
4c\	4c\	4ee\	1c
4d\	4d\	4ff\	.
4c\	4c\	4ee\	.
4B\	4B\	4dd\	.
!	!	!LO:TX:t=P:problem:kreska pseudotaktowa	!LO:TX:t=P:problem:kreska pseudotaktowa
2A/	2A/	2cc\	2r
=16-	=16-	=16-	=16-
2G/	2G/	2g/	2b/
2F/	2F/	2a/	2cc\
2D/	2D/	2b/	2dd\
*	*	*	*custos:ee
!	!	!	!LO:LB:g=original
=17-	=17-	=17-	=17-
!	!	!	!LO:TX:a:i:t=repetatùr:mod=
1C	1C/	4cc\	4ee\
.	.	4b/	4dd\
.	.	4cc\	4ee\
.	.	4dd\	4ff\
2C/	2r	2ee\	2gg\
*custos:c	*custos:c	*	*
!LO:LB:g=original	!LO:LB:g=original	!	!
=18-	=18-	=18-	=18-
1c	4c\	1cc	1ee
.	4B\	.	.
.	4c\	.	.
.	4d\	.	.
!	!	!LO:TX:t=P:problem:kreska pseudotaktowa	!
2c\	2e\	2r	2r
=19-	=19-	=19-	=19-
!	!	!	!LO:TX:t=P:problem:repetycja 17 i 18 taktu
1c	1c	4cc\	4ee\yy
.	.	4b/	4dd\yy
.	.	4cc\	4ee\yy
.	.	4dd\	4ff\yy
!LO:TX:t=P:problem:kreska pseudotaktowa	!	!	!
2c\	2r	2ee\	2gg\yy
=20-	=20-	=20-	=20-
1c	4c\	1cc	1eeyy
.	4B\	.	.
.	4c\	.	.
.	4d\	.	.
!	!	!LO:TX:t=P:problem:kreska pseudotaktowa	!
2c\	2e\	2r	2ryy
=21-	=21-	=21-	=21-
!LO:TX:t=P:problem:kreska pseudotaktowa	!	!	!
1.C	1c	4cc\	4ee\
.	.	4b/	4dd\
.	.	4cc\	4ee\
.	.	4dd\	4ff\
.	2r	2ee\	2gg\
*	*	*custos:cc	*
!	!	!LO:LB:g=original	!
=22-	=22-	=22-	=22-
2.C/	2.C/	2.cc\	2.gg\
4F/	4F/	4a/	4ff\
2G/	2G/	2b/	2dd\
=23-	=23-	=23-	=23-
1C	1C	4cc\	4ee\
.	.	4b/	4dd\
.	.	4cc\	4ee\
.	.	4dd\	4ff\
2C/	2r	2ee\	2gg\
=24-	=24-	=24-	=24-
2.C/	2.C/	2.cc\	2.gg\
!LO:SIC:v:s=4F	!	!	!
4G/	4F/	4a/	4ff\
!LO:TX:t=P:problem:kreska pseudotaktowa	!	!	!
2G/	2G/	2b\	2dd\
=25-	=25-	=25-	=25-
*M2/2	*M2/2	*M2/2	*M2/2
*met(C|)	*met(C|)	*met(C|)	*met(C|)
*mmet(c|)	*mmet(c|)	*mmet(c|)	*mmet(c|)
0C	1C	2cc\	2ee\
.	.	4r	4r
.	.	4cc\	4ee\
*	*	*	*custos:ee
!	!	!	!LO:LB:g=original
=26-	=26-	=26-	=26-
.	2r	4cc\	4ee\
.	.	4cc\	4ee\
.	2c\	4cc\	4ee\
.	.	4cc\	4ee\
=27-	=27-	=27-	=27-
00C	4c\	2cc\	2ee\
.	4c\	.	.
.	4c\	4r	4r
.	4c\	4cc\	4ee\
=28-	=28-	=28-	=28-
.	2c\	8cc\L	8ee\L
.	.	8cc\	8ee\
.	.	8cc\	8ee\
.	.	8cc\J	8ee\J
.	4r	8cc\L	8ee\L
.	.	8cc\	8ee\
!	!LO:TX:t=P:problem:kreska pseudotaktowa	!	!
.	4c\	8cc\	8ee\
!	!	!	!LO:TX:t=P:problem:kreska pseudotaktowa
.	.	8cc\J	8ee\J
*	*custos:c	*	*
!	!LO:LB:g=original	!	!
=29-	=29-	=29-	=29-
.	8c\L	2cc\	2ee\
.	8c\	.	.
.	8c\	.	.
.	8c\J	.	.
.	8c\L	4r	4r
.	8c\	.	.
.	8c\	4cc\	4ee\
!	!LO:TX:t=P:problem:kreska pseudotaktowa	!	!
.	8c\J	.	.
*	*	*custos:cc	*
!	!	!LO:LB:g=original	!
=30-	=30-	=30-	=30-
!LO:TX:t=P:problem:kreska pseudotaktowa	!	!	!
.	4C/	16cc\LL	16ee\LL
.	.	16b\	16dd\
.	.	16cc\	16ee\
.	.	16dd\JJ	16ff\JJ
.	16c\LL	8cc\L	8ee\L
.	16B\	.	.
.	16c\	8cc\J	8ee\J
.	16d\JJ	.	.
.	8c\L	8cc\L	8ee\L
.	8c\	8cc\J	8ee\J
!	!	!LO:TX:t=P:problem:kreska pseudotaktowa	!LO:TX:t=P:problem:kreska pseudotaktowa
.	8c\	4cc\	4ee\
!	!LO:TX:t=P:problem:kreska pseudotaktowa	!	!
.	8c\J	.	.
=31-	=31-	=31-	=31-
0c	4C/	8r	8r
.	.	8cc\L	8ee\L
.	16c\LL	8cc\	8ee\
.	16B\	.	.
.	16c\	8cc\J	8ee\J
.	16d\JJ	.	.
.	8c\L	16cc\LL	16ee\LL
.	.	16b\	16dd\
.	8c\	16cc\	16ee\
.	.	16dd\JJ	16ff\JJ
.	8c\	8cc\L	8ee\L
!	!LO:TX:t=P:problem:kreska pseudotaktowa	!LO:TX:t=P:problem:kreska pseudotaktowa	!
.	8c\J	8cc\J	8ee\J
*	*	*	*custos:ee
!	!	!	!LO:LB:g=original
=32-	=32-	=32-	=32-
.	4C/	8gg\L	8ee\L
!	!	!LO:SIC:s=8ggJ	!
.	.	8gg\	8ee\J
!	!	!LO:SIC:s=8eeL	!
.	8c\L	8ee\	4cc\
.	8c\J	8ee\J	.
.	8e\L	8gg\L	4r
!	!	!LO:SIC:s=8ggJ	!
.	8e\J	8gg\	.
!	!	!LO:SIC:s=8eeL	!
.	8c\L	8ee\	8gg\L
!	!LO:TX:t=P:problem:kreska pseudotaktowa	!LO:TX:t=P:problem:kreska pseudotaktowa	!LO:TX:t=P:problem:kreska pseudotaktowa
.	8c\J	8ee\J	8gg\J
=33-	=33-	=33-	=33-
00c	4C/	4cc\	4ee\
.	8c\L	8ee\L	8g/L
.	8c\J	8ee\J	8g/J
*	*custos:e	*	*
!	!LO:LB:g=original	!	!
.	8e\L	8gg\L	4e/
.	8e\J	8gg\J	.
.	8c\L	8ee\L	8gg\L
!	!LO:TX:t=P:problem:kreska pseudotaktowa	!LO:TX:t=P:problem:kreska pseudotaktowa	!LO:TX:t=P:problem:kreska pseudotaktowa
.	8c\J	8ee\J	8gg\J
*	*	*custos:cc	*
!	!	!LO:LB:g=original	!
=34-	=34-	=34-	=34-
.	16c\LL	4cc\	16ee\LL
.	16B\	.	16dd\
.	16c\	.	16ee\
.	16d\JJ	.	16ff\JJ
!	!	!LO:SIC:v:s=8eL	!
.	8c\L	8d/L	8gg\L
.	8c\J	8e/J	8gg\J
.	8c\L	8g/L	8ee\L
!	!	!LO:SIC:v:s=8gJ	!
.	8c\J	8f/J	8ee\J
!	!LO:TX:t=P:problem:kreska pseudotaktowa	!LO:TX:t=P:problem:kreska pseudotaktowa	!LO:TX:t=P:problem:kreska pseudotaktowa
.	4C/	4e/	4cc\
=35-	=35-	=35-	=35-
!	!	!LO:SIC:v:s=16eeLL	!
.	4r	16cc\LL	16gg\LL
!	!	!LO:SIC:v:s=16dd	!
.	.	16b\	16ff\
!	!	!LO:SIC:v:s=16ee	!
.	.	16cc\	16gg\
!	!	!LO:SIC:v:s=16ffJJ	!
.	.	16dd\JJ	16aa\JJ
.	8c\L	8ee\L	8gg\L
.	8c\J	8ee\J	8gg\J
*	*	*	*custos:ee
!	!	!	!LO:LB:g=original
.	16c\LL	8gg\L	8ee\L
.	16B\	.	.
.	16c\	8gg\J	8ee\J
.	16d\JJ	.	.
!	!	!LO:TX:t=P:problem:kreska pseudotaktowa	!
.	8c\L	4ee\	4cc\
!	!LO:TX:t=P:problem:kreska pseudotaktowa	!	!
.	8c\J	.	.
=36-	=36-	=36-	=36-
!LO:TX:t=P:problem:kreska pseudotaktowa	!	!	!
.	4C/	16ee\LL	16gg\LL
.	.	16dd\	16ff\
.	.	16ee\	16gg\
.	.	16ff\JJ	16aa\JJ
.	8c\L	8ee\L	8gg\L
.	8c\J	8ee\J	8gg\J
.	16c\LL	8gg\L	8ee\L
.	16B\	.	.
.	16c\	8gg\J	8ee\J
.	16d\JJ	.	.
!	!	!	!LO:TX:t=P:problem:kreska pseudotaktowa
.	8c\L	8ee\L	4cc\
!	!	!LO:TX:t=P:problem:kreska pseudotaktowa	!
.	8c\J	8ee\J	.
=37-	=37-	=37-	=37-
0C	4C/	16ee\LL	16gg\LL
.	.	16dd\	16ff\
.	.	16ee\	16gg\
.	.	16ff\JJ	16aa\JJ
.	8c\L	8ee\L	8gg\L
.	8c\J	8ee\J	8gg\J
*	*custos:c	*	*
!	!LO:LB:g=original	!	!
.	16c\LL	8ee\L	8gg\L
.	16B\	.	.
.	16c\	8ee\	8gg\
.	16d\JJ	.	.
.	8c\L	8ee\	8gg\
.	8c\J	8ee\J	8gg\J
=38-	=38-	=38-	=38-
!LO:TX:t=P:problem:kreska pseudotaktowa	!LO:TX:t=P:problem:kreska pseudotaktowa	!	!
.	1C	1ee	1gg
*	*	*custos:cc	*
!	!	!LO:LB:g=original	!
=39-	=39-	=39-	=39-
2r	2r	2r	2r
2c\	2c\	2cc\	2ee\
*custos:B-	*	*	*
!LO:LB:g=original	!	!	!
=40-	=40-	=40-	=40-
2.B-X\	2.B-X\	2.dd\	2.ff\
!	!LO:TX:t=P:problem:kreska pseudotaktowa	!	!
4B-\	4B-\	4dd\	4ff\
=41-	=41-	=41-	=41-
2B-\	2B-X\	2dd\	2ff\
!LO:N:acc=#	!	!	!
!LO:TX:a:t=P:problem:# above	!	!	!
2Gn/	2G/	2b/	2gg\
=42-	=42-	=42-	=42-
!LO:N:acc=#	!	!	!
!LO:TX:a:t=P:problem:# above	!	!	!
0An	0A	2cc#X\	4ee\
.	.	.	4a/
.	.	8r	2.aa\
.	.	8a/L	.
.	.	8a/	.
.	.	8b/J	.
=43-	=43-	=43-	=43-
.	.	4cc#X\	.
.	.	2dd\	8gg\L
.	.	.	8ff\J
.	.	.	2ee\
!	!	!LO:TX:a:t=P:problem:# above	!
.	.	4cc#X\	.
*	*	*	*custos:ff#
!	!	!	!LO:LB:g=original
=44-	=44-	=44-	=44-
0D	0D	4dd\	2ff#X\
.	.	4a/	.
.	.	2.dd\	8r
.	.	.	8aa\L
.	.	.	8aa\
!	!	!	!LO:TX:t=P:problem:kreska pseudotaktowa
.	.	.	8gg\J
=45-	=45-	=45-	=45-
!LO:TX:t=P:problem:kreska pseudotaktowa	!	!	!
.	.	.	4ff#X\
.	.	8ccny\L	2gg\
.	.	8b\J	.
.	.	2a/	.
.	.	.	4ff#X\
=46-	=46-	=46-	=46-
2.G/	2G/	2b/	2gg\
.	4r	4r	4r
4G/	4G/	4g/	4b/
=47-	=47-	=47-	=47-
2.F/	2.F/	2.a/	2.cc\
4F/	4F/	4a/	4cc\
=48-	=48-	=48-	=48-
2F/	2F/	2a/	2cc\
!LO:TX:t=P:problem:kreska pseudotaktowa	!	!	!
2D/	2D/	2f#X/	2dd\
*	*	*custos:g#	*
!	!	!LO:LB:g=original	!
=49-	=49-	=49-	=49-
0E	0E	2g#X/	4b/
.	.	.	4e/
.	.	8r	2.ee\
.	.	8e/L	.
.	.	8e/	.
!	!	!LO:TX:a:t=P:problem:# above	!
.	.	8f#X/J	.
=50-	=50-	=50-	=50-
.	.	4g#X/	.
.	.	2a/	8dd\L
.	.	.	8cc\J
.	.	.	2b/
.	.	4g#X/	.
*	*custos:A	*	*
!	!LO:LB:g=original	!	!
=51-	=51-	=51-	=51-
0A	0A	4a/	4cc#X\
.	.	2ff\	4a/
*	*	*	*custos:aa
!	!	!	!LO:LB:g=original
.	.	.	2.aa\
.	.	8ee\L	.
!	!	!LO:TX:t=P:problem:kreska pseudotaktowa	!
.	.	8dd\J	.
=52-	=52-	=52-	=52-
!LO:TX:t=P:problem:kreska pseudotaktowa	!	!	!
.	.	4cc#X\	.
.	.	2dd\	8gg\L
.	.	.	8ffny\J
.	.	.	2ee\
!	!	!LO:TX:t=P:problem:kreska pseudotaktowa	!
!	!	!LO:TX:a:t=P:problem:# above	!
.	.	4cc#X\	.
=53-	=53-	=53-	=53-
0D	0D	4dd\	2ff#X\
.	.	4a/	.
.	.	2.dd\	8r
.	.	.	8aa\L
.	.	.	8aa\
.	.	.	8gg\J
=54-	=54-	=54-	=54-
.	.	.	4ff#X\
.	.	8ccny\L	2gg\
.	.	8b\J	.
!	!	!LO:TX:t=P:problem:kreska pseudotaktowa	!
.	.	2a/	.
!	!	!	!LO:TX:t=P:problem:kreska pseudotaktowa
.	.	.	4ff#X\
=55-	=55-	=55-	=55-
0G	0G	2b/	4gg\
.	.	.	4dd\
.	.	8r	2.gg\
.	.	8gny/L	.
.	.	8g/	.
!	!	!LO:TX:t=P:problem:kreska pseudotaktowa	!
.	.	8a/J	.
=56-	=56-	=56-	=56-
!LO:TX:t=P:problem:kreska pseudotaktowa	!	!	!
.	.	4b/	.
.	.	2cc\	8ffny\L
.	.	.	8ee\J
!	!	!	!LO:TX:t=P:problem:kreska pseudotaktowa
.	.	.	2dd\
.	.	4b/	.
=57-	=57-	=57-	=57-
1C	1C	2cc\	8ee\L
.	.	.	8ccny\
.	.	.	8cc\
.	.	.	8cc\J
*	*	*custos:g	*custos:ee
!	!	!LO:LB:g=original	!LO:LB:g=original
.	.	2r	8ee\L
.	.	.	16cc\L
.	.	.	16dd\JJ
.	.	.	16ee\LL
.	.	.	16cc\
.	.	.	16ee\
!	!	!	!LO:TX:t=P:problem:kreska pseudotaktowa
.	.	.	16ff\JJ
*clefG2	*	*	*
=58-	=58-	=58-	=58-
4g/	1r	4g/	8gg\L
.	.	.	16ff\L
.	.	.	16ee\JJ
8g/L	.	8g/L	8dd\L
8g/J	.	8g/J	8ee\J
*custos:a	*	*	*
!LO:LB:g=original	!	!	!
8a/L	.	8a/L	4ff\
16f/L	.	16fny/L	.
16g/JJ	.	16g/JJ	.
!	!	!	!LO:TX:t=P:problem:kreska pseudotaktowa
16a/LL	.	16a/LL	4ff\
16f/	.	16f/	.
16a/	.	16a/	.
!LO:TX:t=P:problem:kreska pseudotaktowa	!	!	!
16b/JJ	.	16b/JJ	.
=59-	=59-	=59-	=59-
8cc/L	1r	8cc\L	8ee\L
16b/L	.	16b\L	16gg\L
16a/JJ	.	16a\JJ	16ff#\JJ
8g/L	.	8g/L	8.gg\L
8g/J	.	8g/J	.
.	.	.	16aa\Jk
8a/L	.	8a/L	8.ffny\L
8b/J	.	8b/J	.
.	.	.	16gg\Jk
4cc\	.	2cc\	8.ee\L
.	.	.	16ff\Jk
*	*	*	*custos:dd
!	!	!	!LO:LB:g=original
=60-	=60-	=60-	=60-
2g/	2r	.	2dd\
.	.	8b/L	.
.	.	8a/J	.
*clefC4	*	*	*
!	!	!	!LO:TX:t=P:problem:kreska pseudotaktowa
4G/	4G/	2b/	2r
8G/L	8G/L	.	.
8G/J	8G/J	.	.
=61-	=61-	=61-	=61-
8A/L	8A/L	1r	4cc\
16F/L	16F/L	.	.
16G/JJ	16G/JJ	.	.
16A/LL	16A/LL	.	8cc\L
16F/	16F/	.	.
16A/	16A/	.	8cc\J
16Bny/JJ	16Bny/JJ	.	.
4c\	8c\L	.	8ee\L
.	8C/	.	16cc\L
.	.	.	16dd\JJ
!LO:TX:t=P:problem:kreska pseudotaktowa	!	!	!
4C/	8C/	.	16ee\LL
.	.	.	16cc\
!	!LO:TX:t=P:problem:kreska pseudotaktowa	!	!
.	8C/J	.	16ee\
!	!	!	!LO:TX:t=P:problem:kreska pseudotaktowa
.	.	.	16ff\JJ
=62-	=62-	=62-	=62-
!	!LO:SIC:v:s=8CL	!	!
2C/	8D/L	8r	2gg\
.	16C/L	8g/L	.
.	16D/JJ	.	.
.	16E/LL	8g/	.
.	16C/	.	.
.	16E/	8a/J	.
.	16F/JJ	.	.
2G/	8.G/L	8b/L	2r
.	.	16g/L	.
.	16F/Jk	16a/JJ	.
!	!LO:TX:t=P:problem:kreska pseudotaktowa	!	!
.	4E/	16b/LL	.
.	.	16g/	.
.	.	16b/	.
!	!	!LO:TX:t=P:problem:kreska pseudotaktowa	!
.	.	16cc/JJ	.
=63-	=63-	=63-	=63-
2D/	8D/L	8dd\L	8r
.	16D/L	16f/L	8dd\L
.	16E/JJ	16g/JJ	.
*	*custos:F	*	*
!	!LO:LB:g=original	!	!
.	16F/LL	16a/LL	8dd\
.	16D/	16f/	.
.	16F/	16a/	8dd\J
.	16G/JJ	16b/JJ	.
*	*	*custos:cc	*
!	!	!LO:LB:g=original	!
4.A/	4.A/	16cc\LL	8a/L
.	.	16a\	.
.	.	16cc\	16a/L
.	.	16dd\JJ	16a/JJ
.	.	16ee\LL	16cc\LL
.	.	16cc\	16a\
16G/LL	16G/LL	16ee\	16cc\
!LO:TX:t=P:problem:kreska pseudotaktowa	!LO:TX:t=P:problem:kreska pseudotaktowa	!LO:TX:t=P:problem:kreska pseudotaktowa	!LO:TX:t=P:problem:kreska pseudotaktowa
16F/JJ	16F/JJ	16ff\JJ	16dd\JJ
=64-	=64-	=64-	=64-
!	!LO:TX:t=P:problem:mixed beam	!	!
2C/	8C/L	2gg\	16ee\LL
.	.	.	16cc\
.	8c\	.	16cc\
.	.	.	16dd\JJ
*	*	*	*custos:ee
!	!	!	!LO:LB:g=original
.	8c\	.	16ee\LL
.	.	.	16cc\
.	8A\J	.	16ee\
.	.	.	16ff\JJ
*custos:c	*	*	*
!LO:LB:g=original	!	!	!LO:TX:t=P:problem:kreska pseudotaktowa
1G/	1G/	16r	2gg\
.	.	16g/LL	.
.	.	16g/	.
.	.	16a/JJ	.
.	.	16b/LL	.
.	.	16g/	.
.	.	16b/	.
!	!	!LO:TX:t=P:problem:kreska pseudotaktowa	!
.	.	16cc/JJ	.
=65-	=65-	=65-	=65-
.	.	16dd\LL	16r
.	.	16b\	16g/LL
.	.	16b\	16g/
.	.	16cc\JJ	16a/JJ
.	.	16dd\LL	16b/LL
.	.	16b\	16g/
.	.	16dd\	16b/
.	.	16ee\JJ	16cc/JJ
2G/	2G/	4b/	4dd\
!	!	!LO:TX:t=P:problem:kreska pseudotaktowa	!
.	.	4ee\	4.gg\
=66-	=66-	=66-	=66-
4G/	4r	4b/	.
.	.	.	8ff\
4C/	4C/	2cc\	4ee\
!LO:TX:t=P:problem:kreska pseudotaktowa	!LO:TX:t=P:problem:kreska pseudotaktowa	!	!LO:TX:t=P:problem:kreska pseudotaktowa
2G/	2G/	.	2dd\
!	!	!LO:TX:t=P:problem:kreska pseudotaktowa	!
.	.	4b/	.
=67-	=67-	=67-	=67-
0C	2C/	8ee\L	8cc\L
.	.	8cc\	8ee\
.	.	8cc\	8ee\
.	.	8cc\J	8ee\J
.	8r	8.cc\L	8.ee\L
.	8c\L	.	.
.	.	16b\Jk	16dd\Jk
.	8c\	16cc\LL	16ee\LL
.	.	16b\	16dd\
.	8c\J	16cc\	16ee\
!	!	!LO:TX:t=P:problem:kreska pseudotaktowa	!LO:TX:t=P:problem:kreska pseudotaktowa
.	.	16dd\JJ	16ff\JJ
*	*	*	*custos:gg
!	!	!	!LO:PB:g=original
=68-	=68-	=68-	=68-
.	8.c\L	8ee\L	8gg\L
.	.	8cc\	8ee\
.	16B\Jk	.	.
.	16c\LL	8cc\	8ee\
.	16B\	.	.
.	16c\	8cc\J	8ee\J
.	16d\JJ	.	.
.	8e\L	8.cc\L	8.ee\L
.	8c\	.	.
.	.	16b\Jk	16dd\Jk
.	8c\	16cc\LL	16ee\LL
.	.	16b\	16dd\
!	!LO:TX:t=P:problem:kreska pseudotaktowa	!	!
.	8c\J	16cc\	16ee\
!	!	!	!LO:TX:t=P:problem:kreska pseudotaktowa
!	!	!LO:TX:t=P:problem:kreska pseudotaktowa	!
.	.	16dd\JJ	16ff\JJ
*	*custos:c	*	*custos:gg
!	!LO:LB:g=original	!	!LO:LB:g=original
=69-	=69-	=69-	=69-
!LO:TX:t=P:problem:kreska pseudotaktowa	!	!	!
1C	8.c\L	8ee\L	8gg\L
.	.	8gg\	8ee\
.	16B\Jk	.	.
.	16c\LL	8gg\	8ee\
.	16B\	.	.
.	16c\	8gg\J	8ee\J
.	16d\JJ	.	.
.	8e\L	8gg\L	8ee\L
.	16c\L	16ee\L	16gg\L
.	16c\J	16ee\J	16gg\J
.	8c\	8ee\	8gg\
!	!LO:TX:t=P:problem:kreska pseudotaktowa	!LO:TX:t=P:problem:kreska pseudotaktowa	!LO:TX:t=P:problem:kreska pseudotaktowa
.	8c\J	8ee\J	8gg\J
=70-	=70-	=70-	=70-
!	!	!LO:TX:t=P:problem:mixed beam	!
0F	2F/	8ff\L	8aa\L
.	.	8a/	8ff\
.	.	8a/	8ff\
.	.	8a/J	8ff\J
.	8r	8.a/L	8.ff\L
.	8F/L	.	.
.	.	16g/Jk	16ee\Jk
.	8F/	16a/LL	16ff\LL
.	.	16g/	16ee\
!	!LO:TX:t=P:problem:kreska pseudotaktowa	!	!
.	8F/J	16a/	16ff\
!	!	!	!LO:TX:t=P:problem:kreska pseudotaktowa
!	!	!LO:TX:t=P:problem:kreska pseudotaktowa	!
.	.	16b/JJ	16gg\JJ
*	*	*	*custos:aa
!	!	!	!LO:LB:g=original
=71-	=71-	=71-	=71-
.	8.F/L	8cc\L	8aa\L
.	.	8a\	8ff\
.	16E/Jk	.	.
.	16F/LL	8a\	8ff\
.	16E/	.	.
.	16F/	8a\J	8ff\J
.	16G/JJ	.	.
*	*	*custos:a	*
!	!	!LO:LB:g=original	!
.	8A/L	8.a/L	8.ff\L
.	8F/	.	.
.	.	16g/Jk	16ee\Jk
.	8F/	16a/LL	16ff\LL
.	.	16g/	16ee\
.	8F/J	16a/	16ff\
!	!	!LO:TX:t=P:problem:kreska pseudotaktowa	!
.	.	16b/JJ	16gg\JJ
=72-	=72-	=72-	=72-
0F	0F	8cc/L	8aa\L
.	.	8a/	8ff\
.	.	8a/	8ff\
.	.	8a/J	8ff\J
.	.	8a/L	8ff\L
.	.	8g/	8ee\
.	.	8a/	8ff\
!	!	!LO:TX:t=P:problem:kreska pseudotaktowa	!LO:TX:t=P:problem:kreska pseudotaktowa
.	.	8g/J	8ee\J
=73-	=73-	=73-	=73-
.	.	8a/L	8ff\L
.	.	8g/	8ee\
.	.	8a/	8ff\
.	.	8b/J	8gg\J
.	.	4cc\	2.aa\
.	.	4b/	.
=74-	=74-	=74-	=74-
1F	1F	2.a/	.
.	.	.	4gg\
.	.	.	2ff\
.	.	4b/	.
=75-	=75-	=75-	=75-
!LO:SIC:s=1C;	!LO:SIC:s=1C;	!LO:SIC:s=1cc;	!LO:SIC:s=1ee;
1Cl;;	1Cl;;	1ccl;;	1eel;;
==	==	==	==
*-	*-	*-	*-
!!!system-decoration: [(g1)]s4
!!!RDF**kern: l = terminal long
!!!ENC: Anastazja Marusiak
!!!END: 2022-11-05
!!!ENC: Jan Barakat
!!!END: 2022-11-18
!!!EST: revision finished 2022-11-29
!!!ENC-modern: Andrzej Borzym
!!!END-modern: 2022-12-06
!!!YEC: Copyright 2022 Narodowy Instytut Fryderyka Chopina (https://polishscores.org)
!!!YEM: License CC-BY-4.0 (https://creativecommons.org/licenses/by/4.0)
